public/logo/logo.svg

<svg width="195" height="42" viewBox="0 0 195 42" fill="none" xmlns="http://www.w3.org/2000/svg">
<g clip-path="url(#clip0_99_1959)">
<path d="M57.1536 37.8306C57.7379 36.2221 58.5661 35.4493 60.2892 35.4493H63.5837C65.1478 35.4493 65.3142 36.1778 65.0036 37.0319L64.8039 37.5754H64.0459L64.1531 37.287C64.5451 36.2073 63.898 36.1519 63.1067 36.1519H60.1191C59.2945 36.1519 58.5365 36.3996 58.1335 37.5052L57.2646 39.8975C56.8615 41.0031 57.4384 41.2508 58.2666 41.2508H61.2801C62.4412 41.2508 62.8627 41.0068 63.177 40.1452L63.3212 39.7496H64.131L63.9757 40.1822C63.5578 41.3322 62.9588 41.9571 61.1766 41.9571H57.9264C56.2034 41.9571 55.9408 41.1843 56.5251 39.5758L57.1573 37.8343L57.1536 37.8306Z" fill="#FF0000"/>
<path d="M77.0169 37.5052C77.4199 36.3996 76.8431 36.1519 76.0149 36.1519H72.5244C71.6998 36.1519 70.9418 36.3996 70.5388 37.5052L69.6698 39.8975C69.2668 41.0031 69.8436 41.2508 70.6719 41.2508H74.1624C74.9869 41.2508 75.7449 41.0068 76.148 39.8975L77.0169 37.5052ZM69.5626 37.8306C70.1468 36.2221 70.9751 35.4493 72.6982 35.4493H76.3624C78.0855 35.4493 78.348 36.2221 77.7638 37.8306L77.1315 39.5721C76.5473 41.1806 75.7191 41.9534 73.996 41.9534H70.3317C68.6086 41.9534 68.3461 41.1806 68.9303 39.5721L69.5626 37.8306Z" fill="#FF0000"/>
<path d="M83.5869 35.5196H84.87L88.66 41.1103L90.6973 35.5196H91.5589L89.2405 41.8831H87.9575L84.1674 36.2924L82.1301 41.8831H81.2686L83.5869 35.5196Z" fill="#FF0000"/>
<path d="M98.9729 36.2221H95.7598L96.0149 35.5196H103.31L103.051 36.2221H99.8345L97.7749 41.8831H96.9134L98.9729 36.2221Z" fill="#FF0000"/>
<path d="M111.611 38.6662C112.569 38.6662 113.068 38.4111 113.308 37.7418L113.519 37.1613C113.778 36.4514 113.553 36.2221 112.288 36.2221H108.369L107.481 38.6662H111.611ZM107.766 35.5196H112.854C114.691 35.5196 114.762 36.126 114.325 37.3203L114.137 37.838C113.811 38.7365 113.209 38.9805 112.528 39.0434L112.521 39.0619C113.342 39.2209 113.386 39.6757 113.175 40.2562L112.584 41.8831H111.774L112.284 40.4854C112.647 39.4908 112.207 39.3688 111.426 39.3688H107.226L106.313 41.8831H105.451L107.766 35.5196Z" fill="#FF0000"/>
<path d="M126.456 37.5052C126.859 36.3996 126.282 36.1519 125.454 36.1519H121.964C121.139 36.1519 120.381 36.3996 119.978 37.5052L119.109 39.8975C118.706 41.0031 119.283 41.2508 120.111 41.2508H123.602C124.426 41.2508 125.184 41.0068 125.587 39.8975L126.456 37.5052ZM118.998 37.8306C119.582 36.2221 120.411 35.4493 122.134 35.4493H125.798C127.521 35.4493 127.784 36.2221 127.199 37.8306L126.567 39.5721C125.983 41.1806 125.155 41.9534 123.432 41.9534H119.767C118.044 41.9534 117.782 41.1806 118.366 39.5721L118.998 37.8306Z" fill="#FF0000"/>
<path d="M133.075 35.5196H133.937L131.877 41.1806H136.817L136.562 41.8831H130.761L133.075 35.5196Z" fill="#FF0000"/>
<path d="M141.572 39.879H142.382L142.219 40.3265C141.994 40.9513 142.219 41.2508 143.288 41.2508H145.961C147.211 41.2508 147.673 40.9883 148.006 40.075C148.298 39.2763 148.054 39.073 146.982 39.073H145.347C142.718 39.073 141.916 38.914 142.53 37.2279C143.059 35.7785 144.038 35.4531 145.813 35.4531H147.669C149.803 35.4531 150.143 35.9966 149.729 37.1318L149.648 37.3499H148.838C149.189 36.3405 149.149 36.1556 146.889 36.1556H145.976C144.316 36.1556 143.695 36.2443 143.314 37.2908C143.04 38.0451 143.184 38.3002 144.527 38.3002H147.074C148.753 38.3002 149.282 38.7846 148.886 39.8643L148.734 40.2784C148.165 41.8425 146.841 41.9571 145.566 41.9571H143.173C141.916 41.9571 140.888 41.7389 141.395 40.3486L141.565 39.8827L141.572 39.879Z" fill="#FF0000"/>
<path d="M106.679 9.25209C103.17 7.63625 99.6274 6.13134 96.0112 4.77434C85.6358 0.873404 74.3545 0.462975 63.3839 1.13593C51.633 1.85696 40.0633 4.95552 28.7784 8.13912C24.112 9.45545 19.4864 10.9012 14.8385 12.2804C14.3985 12.4098 12.8973 12.5429 14.6684 12.2397C13.8735 12.3765 13.0637 12.395 12.2576 12.4135C10.9191 12.4431 9.5806 12.2101 8.28645 11.8921C6.97012 11.5668 5.58723 11.0195 4.47056 10.2282C4.17106 10.0138 3.13205 10.4427 2.12631 10.8568C1.42007 11.0454 0.710141 11.2377 0.00390625 11.4263C3.62752 16.4069 9.20714 17.6049 15.0308 17.7195C16.5209 17.7491 18.0258 16.4956 19.4975 16.5215C15.5559 16.4438 11.7289 15.867 8.54528 13.9591C12.9343 13.9998 17.5082 12.6723 21.4202 11.4854C34.1879 7.62146 47.0961 3.96087 60.4924 3.27312C71.0045 2.73328 81.6202 2.30436 91.5556 5.96865C95.0387 7.2517 98.4626 8.69375 101.824 10.2615C105.233 11.8515 109.219 14.1698 113.027 14.5063C114.48 14.6357 116.063 13.1826 117.494 13.3083C113.815 12.9829 109.992 10.7718 106.693 9.24839L106.679 9.25209Z" fill="#FF0000"/>
<path d="M193.179 15.5232L194.714 11.4965H189.393L187.858 15.5232H193.179Z" fill="white"/>
<path d="M46.0712 16.503H67.8905V16.577C65.9345 18.3777 64.0821 19.2762 62.3442 19.2762H55.1192C54.1097 19.2762 53.4774 19.6644 53.2223 20.4446L52.786 21.7573H64.1708V21.8312C61.9818 23.7281 60.1811 24.6783 58.7723 24.6783H51.8394C51.4512 25.5547 51.2552 26.113 51.2552 26.357V26.431C51.3144 26.8673 51.5843 27.0891 52.0576 27.0891H59.645C61.8228 27.0891 63.5015 27.9877 64.6811 29.7884V29.9363H50.3789C47.0843 29.9363 45.0877 29.2781 44.3962 27.9655L44.3223 27.4552C46.0231 21.9089 46.9253 18.8214 47.0215 18.1854C47.0215 17.5272 46.7035 17.017 46.0712 16.6546V16.5067V16.503Z" fill="white"/>
<path d="M66.7225 16.503H72.2689C73.9217 16.503 74.7499 17.0133 74.7499 18.0338V18.3259C74.7499 18.6439 74.0437 20.855 72.6349 24.9667C72.3909 25.7691 72.2689 26.2794 72.2689 26.4975C72.4131 26.8377 72.6349 27.0078 72.927 27.0078H79.9339C80.8694 27.0078 81.5498 25.9614 81.9787 23.8685C83.0473 20.8661 83.5834 19.1135 83.5834 18.6143V18.5404C83.5834 17.6751 83.1693 17.0428 82.341 16.6435V16.4956H88.3237C89.3072 16.4956 89.9654 16.9319 90.2945 17.8082V18.4664C88.5899 24.0978 87.5472 27.1853 87.1553 27.7362C85.9499 29.1967 82.9363 29.9252 78.1073 29.9252H72.487C67.7209 29.9252 65.3359 29.0969 65.3359 27.4441C65.3359 27.2851 66.2344 24.4158 68.0352 18.8325V18.2483C68.0352 17.6049 67.5988 17.0687 66.7225 16.6435V16.4956V16.503Z" fill="white"/>
<path d="M90.5127 16.503H112.624V16.577C110.897 18.4258 108.634 19.3501 105.839 19.3501L102.19 29.9326H95.8409L95.693 29.8586L99.2685 19.3501H99.1243C95.4009 19.3501 92.5316 18.4258 90.5127 16.577V16.503Z" fill="white"/>
<path d="M111.767 16.503H133.002C134.363 16.503 135.457 17.1612 136.285 18.4738C136.381 18.936 136.429 19.3021 136.429 19.5683C136.429 20.4335 136.063 21.4762 135.335 22.7075C133.841 24.0202 131.334 24.6783 127.818 24.6783V24.7523C129.641 25.8579 132.244 28.0468 135.627 31.3192C137.04 32.9868 137.742 33.8372 137.742 33.8742C137.938 34.1182 138.034 34.2624 138.034 34.3105H137.96C129.397 29.2374 122.952 26.0279 118.622 24.6783H117.601C117.505 24.6783 117.043 25.991 116.215 28.6199C115.949 29.3853 115.753 29.8253 115.631 29.9326H109.356L109.208 29.8586C110.617 25.869 111.859 22.1492 112.931 18.692V18.2557C112.931 17.7565 112.543 17.1982 111.763 16.577V16.503H111.767ZM118.626 21.7573H129.278C129.619 20.7367 129.789 20.1525 129.789 20.0046V19.7865C129.789 19.4463 129.619 19.2762 129.278 19.2762H120.959C119.949 19.2762 119.317 19.6644 119.062 20.4446L118.626 21.7573Z" fill="white"/>
<path d="M140.282 16.503H159.838C161.247 16.503 161.953 17.1131 161.953 18.3259V18.3999C161.953 18.8732 160.981 21.9384 159.036 27.5957C157.856 29.1524 155.057 29.9326 150.642 29.9326H141.084C137.789 29.9326 135.793 29.2744 135.101 27.9618L135.027 27.4515C136.972 21.1028 138.045 17.6973 138.237 17.2351C138.699 16.7508 139.379 16.5067 140.282 16.5067V16.503ZM141.812 26.7933H152.173C152.709 26.7933 153.193 25.8209 153.633 23.876C153.73 23.717 154.192 22.2823 155.02 19.572H144.73C144.194 19.572 143.805 20.2302 143.561 21.5428C143.513 21.5428 142.929 23.2954 141.809 26.797L141.812 26.7933Z" fill="white"/>
<path d="M45.7573 16.503H37.153V16.6509C37.8815 17.102 38.2475 17.5642 38.2475 18.0375V18.7659C38.2475 18.8732 37.6855 20.6258 36.5651 24.0165L31.8581 16.503H20.5658V16.6509C21.2942 17.102 21.6602 17.5642 21.6602 18.0375V18.7659C21.6602 18.9249 20.4437 22.6447 18.0107 29.9289H24.5776L28.1569 19.5831L34.598 29.9289H41.1649L45.4689 17.3387C45.65 17.1057 45.9163 16.8728 46.286 16.6472V16.4993H45.7536L45.7573 16.503Z" fill="white"/>
<path d="M177.868 25.1479L178.286 23.9351L173.631 16.503H162.338V16.6509C163.067 17.102 163.433 17.5642 163.433 18.0375V18.7659C163.433 18.9249 162.216 22.6447 159.783 29.9289H166.35L169.929 19.5831L176.37 29.9289H182.937L184.572 25.1479H177.868Z" fill="white"/>
<path d="M187.858 15.5232H179.254V15.6711C179.982 16.1222 180.348 16.5844 180.348 17.0577V17.7861C180.348 17.8304 180.252 18.1521 180.064 18.7474C179.945 19.1172 179.812 19.5202 179.668 19.9565H186.342L187.522 16.503L187.854 15.5232H187.858Z" fill="white"/>
<path d="M191.363 25.1479L193.146 19.9565H186.331L184.549 25.1479H191.363Z" fill="white"/>
</g>
<defs>
<clipPath id="clip0_99_1959">
<rect width="194.714" height="41.0799" fill="white" transform="translate(0 0.873413)"/>
</clipPath>
</defs>
</svg>

<svg
    xmlns="http://www.w3.org/2000/svg"
    fill="none"
    viewBox="0 0 195 42"
    {...props}
  >
    <g clipPath="url(#a)">
      <path
        fill="red"
        d="M57.15 37.83c.59-1.6 1.42-2.38 3.14-2.38h3.3c1.56 0 1.72.73 1.41 1.58l-.2.55h-.75l.1-.3c.4-1.07-.25-1.13-1.04-1.13h-3c-.82 0-1.57.25-1.98 1.36l-.87 2.39c-.4 1.1.18 1.35 1 1.35h3.02c1.16 0 1.58-.24 1.9-1.1l.14-.4h.81l-.15.43c-.42 1.15-1.02 1.78-2.8 1.78h-3.25c-1.73 0-1.99-.78-1.4-2.38l.63-1.75Zm19.87-.33c.4-1.1-.18-1.35-1-1.35h-3.5c-.82 0-1.58.25-1.98 1.36l-.87 2.39c-.4 1.1.17 1.35 1 1.35h3.5c.82 0 1.57-.24 1.98-1.35l.87-2.4Zm-7.46.33c.59-1.6 1.42-2.38 3.14-2.38h3.66c1.73 0 1.99.77 1.4 2.38l-.63 1.74c-.58 1.61-1.41 2.38-3.13 2.38h-3.67c-1.72 0-1.98-.77-1.4-2.38l.63-1.74Zm14.03-2.31h1.28l3.79 5.59 2.04-5.59h.86l-2.32 6.36h-1.28l-3.8-5.59-2.03 5.6h-.86l2.32-6.37Zm15.38.7h-3.21l.25-.7h7.3l-.26.7h-3.22l-2.06 5.66h-.86l2.06-5.66Zm12.64 2.45c.96 0 1.46-.26 1.7-.93l.2-.58c.27-.7.04-.94-1.22-.94h-3.92l-.89 2.45h4.13Zm-3.84-3.15h5.08c1.84 0 1.91.6 1.48 1.8l-.2.52c-.32.9-.92 1.14-1.6 1.2v.02c.81.16.86.62.64 1.2l-.59 1.62h-.8l.5-1.4c.37-.99-.07-1.11-.85-1.11h-4.2l-.92 2.51h-.86l2.32-6.36Zm18.69 1.98c.4-1.1-.18-1.35-1-1.35h-3.5c-.82 0-1.58.25-1.98 1.36l-.87 2.39c-.4 1.1.17 1.35 1 1.35h3.5c.82 0 1.57-.24 1.98-1.35l.87-2.4Zm-7.46.33c.58-1.6 1.41-2.38 3.13-2.38h3.67c1.72 0 1.98.77 1.4 2.38l-.63 1.74c-.59 1.61-1.41 2.38-3.14 2.38h-3.66c-1.73 0-1.99-.77-1.4-2.38l.63-1.74Zm14.07-2.31h.87l-2.06 5.66h4.94l-.26.7h-5.8l2.31-6.36Zm8.5 4.36h.81l-.16.45c-.23.62 0 .92 1.07.92h2.67c1.25 0 1.71-.26 2.05-1.17.29-.8.04-1-1.03-1h-1.63c-2.63 0-3.43-.17-2.82-1.85.53-1.45 1.5-1.78 3.28-1.78h1.86c2.13 0 2.47.55 2.06 1.68l-.08.22h-.81c.35-1.01.3-1.2-1.95-1.2h-.91c-1.66 0-2.28.1-2.67 1.14-.27.76-.13 1.01 1.22 1.01h2.54c1.68 0 2.21.48 1.82 1.56l-.16.42c-.56 1.56-1.89 1.68-3.16 1.68h-2.4c-1.25 0-2.28-.22-1.77-1.61l.16-.47h.01ZM106.68 9.25A161.49 161.49 0 0 0 96 4.77C85.64.87 74.35.47 63.38 1.14c-11.75.72-23.32 3.82-34.6 7-4.67 1.32-9.3 2.76-13.94 4.14-.44.13-1.94.26-.17-.04-.8.14-1.6.15-2.41.17-1.34.03-2.68-.2-3.97-.52-1.32-.32-2.7-.87-3.82-1.66-.3-.22-1.34.21-2.34.63L0 11.43c3.63 4.98 9.2 6.17 15.03 6.29 1.5.03 3-1.22 4.47-1.2-3.94-.08-7.77-.65-10.95-2.56 4.38.04 8.96-1.29 12.87-2.47C34.19 7.62 47.1 3.96 60.49 3.27 71 2.73 81.62 2.3 91.56 5.97c3.48 1.28 6.9 2.72 10.26 4.3 3.41 1.58 7.4 3.9 11.2 4.24 1.46.13 3.04-1.33 4.47-1.2-3.67-.33-7.5-2.54-10.8-4.06h-.01Z"
      />
      <path
        fill="#fff"
        d="m193.18 15.52 1.53-4.02h-5.32l-1.53 4.02h5.32Zm-147.11.98H67.9v.08c-1.96 1.8-3.8 2.7-5.55 2.7h-7.22c-1.01 0-1.64.38-1.9 1.16l-.43 1.32h11.38v.07c-2.19 1.9-3.99 2.85-5.4 2.85h-6.93a6.05 6.05 0 0 0-.58 1.68v.07c.05.44.32.66.8.66h7.59c2.17 0 3.85.9 5.03 2.7v.15h-14.3c-3.3 0-5.3-.66-5.98-1.97l-.08-.51c1.7-5.55 2.6-8.64 2.7-9.27 0-.66-.32-1.17-.95-1.54v-.14Z"
      />
      <path
        fill="#fff"
        d="M66.72 16.5h5.55c1.65 0 2.48.51 2.48 1.53v.3c0 .31-.7 2.53-2.12 6.64-.24.8-.36 1.3-.36 1.53.14.34.36.5.66.5h7c.94 0 1.62-1.04 2.05-3.13 1.07-3 1.6-4.76 1.6-5.26v-.07c0-.86-.41-1.5-1.24-1.9v-.14h5.98c.99 0 1.65.43 1.97 1.3v.67c-1.7 5.63-2.74 8.72-3.13 9.27-1.21 1.46-4.22 2.19-9.05 2.19h-5.62c-4.77 0-7.15-.83-7.15-2.49 0-.15.9-3.02 2.7-8.6v-.6c0-.64-.44-1.17-1.32-1.6v-.14Zm23.79 0h22.11v.08a8.86 8.86 0 0 1-6.78 2.77l-3.65 10.58h-6.35l-.15-.07 3.58-10.51h-.15c-3.72 0-6.59-.92-8.6-2.77v-.08Z"
      />
      <path
        fill="#fff"
        d="M111.77 16.5H133c1.36 0 2.46.66 3.28 1.97.1.47.15.83.15 1.1 0 .86-.37 1.9-1.1 3.14-1.49 1.31-4 1.97-7.51 1.97v.07c1.82 1.1 4.42 3.3 7.8 6.57a57.41 57.41 0 0 1 2.12 2.55c.2.25.3.4.3.44h-.08c-8.56-5.07-15-8.28-19.34-9.63h-1.02c-.1 0-.56 1.31-1.38 3.94a4.5 4.5 0 0 1-.59 1.31h-6.27l-.15-.07c1.4-4 2.65-7.71 3.72-11.17v-.43c0-.5-.39-1.06-1.17-1.68v-.08Zm6.86 5.26h10.65c.34-1.02.5-1.6.5-1.76v-.21c0-.34-.16-.51-.5-.51h-8.32c-1.01 0-1.64.38-1.9 1.16l-.43 1.32Z"
      />
      <path
        fill="#fff"
        d="M140.28 16.5h19.56c1.4 0 2.11.61 2.11 1.83v.07c0 .47-.97 3.54-2.91 9.2-1.18 1.55-3.98 2.33-8.4 2.33h-9.56c-3.3 0-5.29-.66-5.98-1.97l-.07-.5c1.94-6.36 3.01-9.76 3.2-10.22.47-.49 1.15-.73 2.05-.73Zm1.53 10.3h10.36c.54 0 1.02-.98 1.46-2.92.1-.16.56-1.6 1.39-4.3h-10.29c-.54 0-.92.65-1.17 1.96-.05 0-.63 1.76-1.75 5.26ZM45.76 16.5h-8.6v.15c.72.45 1.09.91 1.09 1.39v.73c0 .1-.56 1.86-1.68 5.25l-4.71-7.52h-11.3v.15c.73.45 1.1.91 1.1 1.39v.73c0 .15-1.22 3.87-3.65 11.16h6.57l3.58-10.35 6.44 10.35h6.56l4.3-12.6a3 3 0 0 1 .83-.68v-.15h-.54Z"
      />
      <path
        fill="#fff"
        d="m177.87 25.15.42-1.21-4.66-7.44h-11.3v.15c.74.45 1.1.91 1.1 1.39v.73c0 .15-1.21 3.87-3.65 11.16h6.57l3.58-10.35 6.44 10.35h6.57l1.63-4.78h-6.7Zm9.99-9.63h-8.6v.15c.72.45 1.09.91 1.09 1.39v.73a176.01 176.01 0 0 1-.68 2.17h6.67l1.18-3.46.33-.98Z"
      />
      <path fill="#fff" d="m191.36 25.15 1.79-5.2h-6.82l-1.78 5.2h6.81Z" />
    </g>
    <defs>
      <clipPath id="a">
        <path fill="#fff" d="M0 .87h194.71v41.08H0z" />
      </clipPath>
    </defs>
  </svg>
